images/logo.svg

<svg xmlns="http://www.w3.org/2000/svg" width="1457" height="327" fill="none"><path fill="#2856CC" d="m7.194 235 12.426-34.662H8.938l3.706-23.108h15.26l14.17-39.894H23.98l3.488-23.108h22.89L61.912 81.31h24.852l-11.772 32.918h19.184l11.772-32.918h25.07l-11.772 32.918h10.246l-3.488 23.108h-15.042l-14.17 39.894h17.876l-3.706 23.108H88.508L76.082 235H51.448l12.208-34.662H44.69L32.264 235H7.194Zm45.562-57.77H71.94l14.17-39.894H66.926l-14.17 39.894ZM127.445 235l24.416-153.69h69.324c12.063 0 21.8 1.671 29.212 5.014 7.412 3.197 12.789 7.63 16.132 13.298 3.343 5.523 5.014 11.772 5.014 18.748 0 9.447-2.761 17.44-8.284 23.98-5.377 6.54-12.571 11.118-21.582 13.734 7.267 2.761 12.862 7.049 16.786 12.862 4.069 5.668 6.104 12.353 6.104 20.056 0 14.824-5.232 26.233-15.696 34.226C238.407 231.076 224.31 235 206.579 235h-79.134Zm52.974-92.65h29.43c15.696 0 23.544-6.322 23.544-18.966 0-4.069-1.526-7.194-4.578-9.374-3.052-2.18-7.848-3.27-14.388-3.27h-28.994l-5.014 31.61Zm-10.028 63.22h33.79c7.557 0 13.153-1.671 16.786-5.014 3.633-3.343 5.45-8.066 5.45-14.17 0-9.737-6.467-14.606-19.402-14.606h-31.174l-5.45 33.79ZM271.793 235l24.416-153.69h40.112l-9.374 59.296h63.22l9.592-59.296h39.894L415.237 235h-39.894l9.592-61.476h-63.22L311.905 235h-40.112Z"/><path fill="#2667FF" d="M446.876 235V81.31h22.672v66.926h24.634l43.164-66.926h25.07l-46.87 70.632c6.104 2.325 11.481 5.959 16.132 10.9 4.651 4.796 8.793 10.827 12.426 18.094L570.482 235h-24.416l-20.928-44.69c-3.924-8.284-8.502-14.17-13.734-17.658-5.232-3.633-11.699-5.45-19.402-5.45h-22.454V235h-22.672Zm199.135 1.962c-14.679 0-27.396-3.197-38.15-9.592-10.755-6.54-19.112-15.696-25.07-27.468-5.814-11.917-8.72-25.869-8.72-41.856 0-16.132 2.906-30.084 8.72-41.856 5.958-11.772 14.315-20.855 25.07-27.25 10.754-6.395 23.471-9.592 38.15-9.592 14.533 0 27.177 3.197 37.932 9.592 10.9 6.395 19.256 15.478 25.07 27.25 5.958 11.772 8.938 25.651 8.938 41.638 0 16.132-2.98 30.157-8.938 42.074-5.814 11.772-14.17 20.928-25.07 27.468-10.755 6.395-23.399 9.592-37.932 9.592Zm0-19.62c15.26 0 27.104-5.159 35.534-15.478 8.574-10.464 12.862-25.07 12.862-43.818 0-18.748-4.215-33.281-12.644-43.6-8.43-10.319-20.347-15.478-35.752-15.478-15.26 0-27.178 5.159-35.752 15.478-8.43 10.319-12.644 24.852-12.644 43.6s4.214 33.354 12.644 43.818c8.574 10.319 20.492 15.478 35.752 15.478ZM739.618 235V81.31h22.672v66.272h86.11V81.31h22.454V235H848.4v-68.452h-86.11V235h-22.672Zm195.895 0V100.276h-54.5V81.31h131.457v18.966h-54.503V235h-22.454Zm87.057 0V81.31h63.65c16.57 0 29.36 4.142 38.37 12.426 9.01 8.139 13.52 19.62 13.52 34.444 0 14.969-4.51 26.596-13.52 34.88-9.01 8.139-21.8 12.208-38.37 12.208h-40.98V235h-22.67Zm22.67-77.826h37.71c22.09 0 33.14-9.665 33.14-28.994 0-19.184-11.05-28.776-33.14-28.776h-37.71v57.77Zm173.05 79.788c-14.67 0-27.39-3.197-38.15-9.592-10.75-6.54-19.11-15.696-25.07-27.468-5.81-11.917-8.72-25.869-8.72-41.856 0-16.132 2.91-30.084 8.72-41.856 5.96-11.772 14.32-20.855 25.07-27.25 10.76-6.395 23.48-9.592 38.15-9.592 14.54 0 27.18 3.197 37.94 9.592 10.9 6.395 19.25 15.478 25.07 27.25 5.96 11.772 8.93 25.651 8.93 41.638 0 16.132-2.97 30.157-8.93 42.074-5.82 11.772-14.17 20.928-25.07 27.468-10.76 6.395-23.4 9.592-37.94 9.592Zm0-19.62c15.26 0 27.11-5.159 35.54-15.478 8.57-10.464 12.86-25.07 12.86-43.818 0-18.748-4.21-33.281-12.64-43.6-8.43-10.319-20.35-15.478-35.76-15.478-15.26 0-27.17 5.159-35.75 15.478-8.43 10.319-12.64 24.852-12.64 43.6s4.21 33.354 12.64 43.818c8.58 10.319 20.49 15.478 35.75 15.478Zm89.69 21.146-10.68-17.222c5.67-3.052 10.76-6.758 15.26-11.118 4.51-4.505 8.28-10.246 11.34-17.222 3.19-6.976 5.59-15.696 7.19-26.16 1.6-10.609 2.4-23.617 2.4-39.022V81.31h104.86V235h-22.46V100.276h-61.47v33.136c0 20.637-1.82 37.859-5.45 51.666-3.64 13.661-8.94 24.779-15.92 33.354-6.83 8.429-15.18 15.115-25.07 20.056Z"/></svg>

<svg width="1457" height="327" viewBox="0 0 1457 327" fill="none" xmlns="http://www.w3.org/2000/svg">
<path d="M7.194 235L19.62 200.338H8.938L12.644 177.23H27.904L42.074 137.336H23.98L27.468 114.228H50.358L61.912 81.31H86.764L74.992 114.228H94.176L105.948 81.31H131.018L119.246 114.228H129.492L126.004 137.336H110.962L96.792 177.23H114.668L110.962 200.338H88.508L76.082 235H51.448L63.656 200.338H44.69L32.264 235H7.194ZM52.756 177.23H71.94L86.11 137.336H66.926L52.756 177.23ZM127.445 235L151.861 81.31H221.185C233.248 81.31 242.985 82.9813 250.397 86.324C257.809 89.5213 263.186 93.954 266.529 99.622C269.872 105.145 271.543 111.394 271.543 118.37C271.543 127.817 268.782 135.81 263.259 142.35C257.882 148.89 250.688 153.468 241.677 156.084C248.944 158.845 254.539 163.133 258.463 168.946C262.532 174.614 264.567 181.299 264.567 189.002C264.567 203.826 259.335 215.235 248.871 223.228C238.407 231.076 224.31 235 206.579 235H127.445ZM180.419 142.35H209.849C225.545 142.35 233.393 136.028 233.393 123.384C233.393 119.315 231.867 116.19 228.815 114.01C225.763 111.83 220.967 110.74 214.427 110.74H185.433L180.419 142.35ZM170.391 205.57H204.181C211.738 205.57 217.334 203.899 220.967 200.556C224.6 197.213 226.417 192.49 226.417 186.386C226.417 176.649 219.95 171.78 207.015 171.78H175.841L170.391 205.57ZM271.793 235L296.209 81.31H336.321L326.947 140.606H390.167L399.759 81.31H439.653L415.237 235H375.343L384.935 173.524H321.715L311.905 235H271.793Z" fill="#2856CC"/>
<path d="M446.876 235V81.31H469.548V148.236H494.182L537.346 81.31H562.416L515.546 151.942C521.65 154.267 527.027 157.901 531.678 162.842C536.329 167.638 540.471 173.669 544.104 180.936L570.482 235H546.066L525.138 190.31C521.214 182.026 516.636 176.14 511.404 172.652C506.172 169.019 499.705 167.202 492.002 167.202H469.548V235H446.876ZM646.011 236.962C631.332 236.962 618.615 233.765 607.861 227.37C597.106 220.83 588.749 211.674 582.791 199.902C576.977 187.985 574.071 174.033 574.071 158.046C574.071 141.914 576.977 127.962 582.791 116.19C588.749 104.418 597.106 95.3347 607.861 88.94C618.615 82.5453 631.332 79.348 646.011 79.348C660.544 79.348 673.188 82.5453 683.943 88.94C694.843 95.3347 703.199 104.418 709.013 116.19C714.971 127.962 717.951 141.841 717.951 157.828C717.951 173.96 714.971 187.985 709.013 199.902C703.199 211.674 694.843 220.83 683.943 227.37C673.188 233.765 660.544 236.962 646.011 236.962ZM646.011 217.342C661.271 217.342 673.115 212.183 681.545 201.864C690.119 191.4 694.407 176.794 694.407 158.046C694.407 139.298 690.192 124.765 681.763 114.446C673.333 104.127 661.416 98.968 646.011 98.968C630.751 98.968 618.833 104.127 610.259 114.446C601.829 124.765 597.615 139.298 597.615 158.046C597.615 176.794 601.829 191.4 610.259 201.864C618.833 212.183 630.751 217.342 646.011 217.342ZM739.618 235V81.31H762.29V147.582H848.4V81.31H870.854V235H848.4V166.548H762.29V235H739.618ZM935.513 235V100.276H881.013V81.31H1012.47V100.276H957.967V235H935.513ZM1022.57 235V81.31H1086.22C1102.79 81.31 1115.58 85.452 1124.59 93.736C1133.6 101.875 1138.11 113.356 1138.11 128.18C1138.11 143.149 1133.6 154.776 1124.59 163.06C1115.58 171.199 1102.79 175.268 1086.22 175.268H1045.24V235H1022.57ZM1045.24 157.174H1082.95C1105.04 157.174 1116.09 147.509 1116.09 128.18C1116.09 108.996 1105.04 99.404 1082.95 99.404H1045.24V157.174ZM1218.29 236.962C1203.62 236.962 1190.9 233.765 1180.14 227.37C1169.39 220.83 1161.03 211.674 1155.07 199.902C1149.26 187.985 1146.35 174.033 1146.35 158.046C1146.35 141.914 1149.26 127.962 1155.07 116.19C1161.03 104.418 1169.39 95.3347 1180.14 88.94C1190.9 82.5453 1203.62 79.348 1218.29 79.348C1232.83 79.348 1245.47 82.5453 1256.23 88.94C1267.13 95.3347 1275.48 104.418 1281.3 116.19C1287.26 127.962 1290.23 141.841 1290.23 157.828C1290.23 173.96 1287.26 187.985 1281.3 199.902C1275.48 211.674 1267.13 220.83 1256.23 227.37C1245.47 233.765 1232.83 236.962 1218.29 236.962ZM1218.29 217.342C1233.55 217.342 1245.4 212.183 1253.83 201.864C1262.4 191.4 1266.69 176.794 1266.69 158.046C1266.69 139.298 1262.48 124.765 1254.05 114.446C1245.62 104.127 1233.7 98.968 1218.29 98.968C1203.03 98.968 1191.12 104.127 1182.54 114.446C1174.11 124.765 1169.9 139.298 1169.9 158.046C1169.9 176.794 1174.11 191.4 1182.54 201.864C1191.12 212.183 1203.03 217.342 1218.29 217.342ZM1307.98 238.488L1297.3 221.266C1302.97 218.214 1308.06 214.508 1312.56 210.148C1317.07 205.643 1320.84 199.902 1323.9 192.926C1327.09 185.95 1329.49 177.23 1331.09 166.766C1332.69 156.157 1333.49 143.149 1333.49 127.744V81.31H1438.35V235H1415.89V100.276H1354.42V133.412C1354.42 154.049 1352.6 171.271 1348.97 185.078C1345.33 198.739 1340.03 209.857 1333.05 218.432C1326.22 226.861 1317.87 233.547 1307.98 238.488Z" fill="#2667FF"/>
</svg>
